svg/icon/pot.svg

<svg xmlns="http://www.w3.org/2000/svg" xmlns:xlink="http://www.w3.org/1999/xlink" width="32" height="32" viewBox="0 0 32 32">
  <defs>
    <linearGradient id="pot-c" x1="50%" x2="50%" y1="0%" y2="100%">
      <stop offset="0%" stop-color="#FFF" stop-opacity=".5"/>
      <stop offset="100%" stop-opacity=".5"/>
    </linearGradient>
    <circle id="pot-b" cx="16" cy="15" r="15"/>
    <filter id="pot-a" width="111.7%" height="111.7%" x="-5.8%" y="-4.2%" filterUnits="objectBoundingBox">
      <feOffset dy=".5" in="SourceAlpha" result="shadowOffsetOuter1"/>
      <feGaussianBlur in="shadowOffsetOuter1" result="shadowBlurOuter1" stdDeviation=".5"/>
      <feComposite in="shadowBlurOuter1" in2="SourceAlpha" operator="out" result="shadowBlurOuter1"/>
      <feColorMatrix in="shadowBlurOuter1" values="0 0 0 0 0   0 0 0 0 0   0 0 0 0 0  0 0 0 0.199473505 0"/>
    </filter>
    <path id="pot-e" d="M12.0325653,17.1807346 C11.900419,17.8555875 11.7716769,18.5112514 11.6437385,19.1669615 C11.4064425,20.3839623 11.1688629,21.6008245 10.933931,22.8181953 C10.9128443,22.9274572 10.8850439,23.0019939 10.7451911,22.9999594 C9.86319155,22.9870588 8.98114472,22.9804004 8.09909789,22.9704591 C8.0775857,22.9702279 8.05626264,22.9556627 8,22.9349016 C8.66096777,19.6336018 9.32236105,16.3301287 9.99018436,12.9944273 L8.31341598,12.9944273 C8.3172929,12.9213703 8.31450341,12.8770274 8.32263548,12.8346728 C8.42556301,12.2975648 8.53676446,11.761844 8.62976328,11.2231177 C8.65562518,11.073212 8.72318763,11.0350651 8.86256767,11.0363136 C9.27210292,11.039874 9.68211097,11.0246152 10.0911261,11.038718 C10.2863433,11.0454688 10.3617069,10.9884104 10.3986322,10.7965663 C10.6269923,9.60948178 10.8710019,8.42521785 11.1052247,7.23910438 C11.1331669,7.09752168 11.1635203,7.00097541 11.348336,7.00148404 C13.3564866,7.00735634 15.3648736,6.98793612 17.3726459,7.01410718 C18.5448472,7.02936593 19.7197434,7.08855139 20.8722764,7.32640293 C21.2701336,7.4084765 21.6729079,7.51390059 22.0413099,7.67777032 C23.099473,8.14843338 23.73595,8.96204841 23.9131536,10.0892539 C24.1883678,11.8400798 23.8169398,13.448352 22.6920653,14.850816 C21.8639172,15.883371 20.7249534,16.4622787 19.4542689,16.8137386 C18.446033,17.0926038 17.412408,17.1797174 16.369658,17.1819368 C15.014816,17.1847574 13.6599739,17.1814282 12.3051791,17.1807346 C12.2202177,17.1806884 12.1352564,17.1807346 12.0325653,17.1807346 Z M12.5882889,14.4416041 C12.700625,14.4416041 12.7856809,14.4416041 12.8707367,14.4416041 C14.3038264,14.441974 15.7370107,14.4451645 17.1700531,14.4404482 C17.4763772,14.4394309 17.7846397,14.4265303 18.0884106,14.3901405 C19.2445842,14.251702 20.124267,13.6973933 20.6857587,12.6891136 C20.9355837,12.2405064 20.9991274,11.7570352 20.9147334,11.2558084 C20.7974329,10.5591309 20.380522,10.1036803 19.6736931,9.97573801 C19.157448,9.88228973 18.6294775,9.81464261 18.1054313,9.80539488 C16.6334305,9.779455 15.1607206,9.78958127 13.6882943,9.78625208 C13.634963,9.78611337 13.5815844,9.79434384 13.5106651,9.80007744 C13.43081,10.2079484 13.3523733,10.6088836 13.2665136,11.0475033 L17.3566654,11.0475033 C17.2280651,11.7119063 17.1059894,12.342555 16.9814551,12.9857345 L12.8780651,12.9857345 C12.7814257,13.4711476 12.6876231,13.942643 12.5882889,14.4416041 Z"/>
    <filter id="pot-d" width="121.9%" height="121.9%" x="-10.9%" y="-7.8%" filterUnits="objectBoundingBox">
      <feOffset dy=".5" in="SourceAlpha" result="shadowOffsetOuter1"/>
      <feGaussianBlur in="shadowOffsetOuter1" result="shadowBlurOuter1" stdDeviation=".5"/>
      <feColorMatrix in="shadowBlurOuter1" values="0 0 0 0 0   0 0 0 0 0   0 0 0 0 0  0 0 0 0.204257246 0"/>
    </filter>
  </defs>
  <g fill="none" fill-rule="evenodd">
    <use fill="#000" filter="url(#pot-a)" xlink:href="#pot-b"/>
    <use fill="#105B2F" xlink:href="#pot-b"/>
    <use fill="url(#pot-c)" style="mix-blend-mode:soft-light" xlink:href="#pot-b"/>
    <circle cx="16" cy="15" r="14.5" stroke="#000" stroke-opacity=".097"/>
    <g>
      <use fill="#000" filter="url(#pot-d)" xlink:href="#pot-e"/>
      <use fill="#FFF" xlink:href="#pot-e"/>
    </g>
  </g>
</svg>

<svg xmlns="http://www.w3.org/2000/svg" xmlns:xlink="http://www.w3.org/1999/xlink" width="32" height="32"><defs><linearGradient id="c" x1="50%" x2="50%" y1="0%" y2="100%"><stop offset="0%" stop-color="#FFF" stop-opacity=".5"/><stop offset="100%" stop-opacity=".5"/></linearGradient><circle id="b" cx="16" cy="15" r="15"/><filter id="a" width="111.7%" height="111.7%" x="-5.8%" y="-4.2%" filterUnits="objectBoundingBox"><feOffset dy=".5" in="SourceAlpha" result="shadowOffsetOuter1"/><feGaussianBlur in="shadowOffsetOuter1" result="shadowBlurOuter1" stdDeviation=".5"/><feComposite in="shadowBlurOuter1" in2="SourceAlpha" operator="out" result="shadowBlurOuter1"/><feColorMatrix in="shadowBlurOuter1" values="0 0 0 0 0 0 0 0 0 0 0 0 0 0 0 0 0 0 0.199473505 0"/></filter><path id="e" d="M12.033 17.18l-.39 1.987-.71 3.651c-.02.11-.048.184-.188.182-.882-.013-1.764-.02-2.646-.03-.021 0-.043-.014-.099-.035l1.99-9.94H8.313c.004-.074.002-.118.01-.16.103-.537.214-1.073.307-1.612.026-.15.093-.188.233-.187.41.004.82-.011 1.228.003.195.006.27-.05.308-.242.228-1.188.472-2.372.706-3.558.028-.141.059-.238.243-.238 2.008.006 4.017-.013 6.025.013 1.172.015 2.347.075 3.5.312.397.082.8.188 1.168.352 1.058.47 1.695 1.284 1.872 2.411.275 1.751-.096 3.36-1.22 4.762-.83 1.032-1.968 1.611-3.239 1.963-1.008.279-2.042.366-3.084.368-1.355.003-2.71 0-4.065-.001h-.272zm.555-2.738h.283c1.433 0 2.866.003 4.3-.002.305 0 .614-.013.917-.05 1.157-.138 2.036-.693 2.598-1.7a2.14 2.14 0 0 0 .229-1.434c-.118-.697-.534-1.152-1.241-1.28a9.826 9.826 0 0 0-1.569-.17c-1.472-.027-2.944-.016-4.417-.02-.053 0-.106.008-.177.014l-.244 1.248h4.09l-.376 1.938h-4.103l-.29 1.456z"/><filter id="d" width="121.9%" height="121.9%" x="-10.9%" y="-7.8%" filterUnits="objectBoundingBox"><feOffset dy=".5" in="SourceAlpha" result="shadowOffsetOuter1"/><feGaussianBlur in="shadowOffsetOuter1" result="shadowBlurOuter1" stdDeviation=".5"/><feColorMatrix in="shadowBlurOuter1" values="0 0 0 0 0 0 0 0 0 0 0 0 0 0 0 0 0 0 0.204257246 0"/></filter></defs><g fill="none" fill-rule="evenodd"><use fill="#000" filter="url(#a)" xlink:href="#b"/><use fill="#105B2F" xlink:href="#b"/><use fill="url(#c)" style="mix-blend-mode:soft-light" xlink:href="#b"/><circle cx="16" cy="15" r="14.5" stroke="#000" stroke-opacity=".097"/><use fill="#000" filter="url(#d)" xlink:href="#e"/><use fill="#FFF" xlink:href="#e"/></g></svg>
